X: 1
T: Bonaparte Crossing The Alps
M: 4/4
L: 1/8
R: barndance
K: Amix
|:E2FG|A4 A4|ABAG E2D2|B2d2 e2B2|d4 e2fg|
a2ag eged|BdBA G2E2|G3G G2A2|G4:|
|:e2fg|a2ag eged|Bcd2 e2f2|g3a g2e2|g4 e2fg|
a2ag eged|BdBA G2E2|G3G G2E2|G4:|
